X: 143
T: The Chanter's Tune
N:"Slow"
B:O'Neill's 143
Z:Transcribed by henrik.norbeck@mailbox.swipnet.se
M:2/4
L:1/8
K:G
(c/A/)|GG ">"d(c/A/)|GG ">"=f(e/f/)|gd ">"d(c/A/)|=fe d(c/A/)|
GG ">"d(c/A/)|GG ">"=f(e/f/)|gd d(c/A/)|G2- G||
(B/c/)|dd/e/ ">"=f(e/f/)|(d/c/d/e/) ">"=f(e/f/)|gd .d(c/A/)|.=f(e/f/) .d(c/A/)|
GG .d(c/A/)|GG ">"=f(e/f/)|gd d(c/A/)|G2- G||


